X: 1
T:The Midnight Ramble
N:Thompson's Compleat Collection 1773
Q: 1/2=110
M:2/2
L:1/4
K:D
B/c/|:"D"d2 A2| F>E DF|"A"EcEc|"D"dA D/E/F/D/|
"D"d2 A2| F>E DA|"G"BG"A"FE|"D"D//D//D/ D z:|
|:"D"f>e da| fd f/g/a/f/|"A"e>d cg|"A7"ec e/f/g/e/|
"D"fd "A"ge| "D"af "Em"bg|"Bm"fd "A"ef|"D"d//d//d/ d za/g/:|
